assets/icons/qvision/escalator.svg

<svg width="24" height="24" viewBox="0 0 24 24" fill="none" xmlns="http://www.w3.org/2000/svg">
<g clip-path="url(#clip0_147_6169)">
<path d="M19 3H5C3.9 3 3 3.9 3 5V19C3 20.1 3.9 21 5 21H19C20.1 21 21 20.1 21 19V5C21 3.9 20.1 3 19 3ZM17 9H15.3L10.3 18H7C6.17 18 5.5 17.33 5.5 16.5C5.5 15.67 6.17 15 7 15H8.7L13.7 6H17C17.83 6 18.5 6.67 18.5 7.5C18.5 8.33 17.83 9 17 9Z" fill="#323232"/>
</g>
<defs>
<clipPath id="clip0_147_6169">
<rect width="24" height="24" fill="white"/>
</clipPath>
</defs>
</svg>

<svg xmlns="http://www.w3.org/2000/svg" enable-background="new 0 0 24 24" height="24" viewBox="0 0 24 24" width="24"><g><rect fill="none" height="24" width="24"/><g><path d="M19,3H5C3.9,3,3,3.9,3,5v14c0,1.1,0.9,2,2,2h14c1.1,0,2-0.9,2-2l0-14C21,3.9,20.1,3,19,3z M17,9h-1.7l-5,9H7 c-0.83,0-1.5-0.67-1.5-1.5S6.17,15,7,15h1.7l5-9H17c0.83,0,1.5,0.67,1.5,1.5S17.83,9,17,9z"/></g></g></svg>
